Delta/apps/scalable/spotify.svg

<svg xmlns="http://www.w3.org/2000/svg" width="192" height="192" viewBox="0 0 192 192">
  <g fill="none" fill-rule="evenodd">
    <circle cx="96" cy="96" r="87" fill="#98DC9A"/>
    <g fill="#000" fill-opacity=".25" fill-rule="nonzero" transform="rotate(-45 136.22 -14.755)">
      <path d="M56.9653567,61.2358318 L56.9589041,61.2358318 C56.9589041,47.9076783 52.0717232,34.9019912 43.2915671,25.2999799 C33.7934131,14.9127636 20.3637412,9.04109589 4.17998338,9.04109589 L4.17998338,9.02846009 C1.8424305,8.85435081 -1.0658141e-13,6.90261073 -1.0658141e-13,4.52054795 C-1.0658141e-13,2.13848516 1.8424305,0.186745077 4.17998338,0.0126358007 L4.17998338,-1.13686838e-13 C4.27109369,2.0351696e-12 4.36213622,0.000164323761 4.45311079,0.000492787076 C4.47555063,0.000164641734 4.49803006,-1.13686838e-13 4.52054795,-1.13686838e-13 C4.55787288,-1.13686838e-13 4.59509215,0.000452358465 4.63220059,0.00135189212 C23.1479772,0.112159674 38.8368942,7.03051186 49.9637499,19.1988824 C60.2921643,30.4940746 66,45.6836751 66,61.2358318 L65.9935474,61.2358318 C65.997831,61.3164957 66,61.3977206 66,61.4794521 C66,63.9760817 63.9760817,66 61.4794521,66 C58.9828224,66 56.9589041,63.9760817 56.9589041,61.4794521 C56.9589041,61.3977206 56.9610731,61.3164957 56.9653567,61.2358318 L56.9653567,61.2358318 Z"/>
      <path d="M38.0718247,61.5112319 L37.9044849,61.5112319 L37.9044849,60.1550675 C37.9044849,51.6885868 34.7906745,43.4752409 29.2730797,37.4411788 C23.1851305,30.783375 14.657255,27.1914055 4.5567014,27.1914055 L3.20053702,27.1914055 L3.20053702,26.8939469 C1.59140064,26.2627186 0.452054795,24.6958266 0.452054795,22.862826 C0.452054795,21.0298255 1.59140064,19.4629335 3.20053702,18.8317052 L3.20053702,18.5342466 L4.5567014,18.5342466 C4.61440871,18.5342466 4.67208061,18.5343444 4.72971695,18.5345399 C4.74666616,18.5343445 4.76363877,18.5342466 4.78063427,18.5342466 C4.81184153,18.5342466 4.84297167,18.5345768 4.87402136,18.535234 C17.2549866,18.6123588 27.9865492,23.2053515 35.6619232,31.599169 C42.6483753,39.2395788 46.5616438,49.5386027 46.5616438,60.1550675 L46.5616438,61.5112319 L46.3943041,61.5112319 C45.8753596,63.3201485 44.2087938,64.6438356 42.2330644,64.6438356 C40.2573349,64.6438356 38.5907691,63.3201485 38.0718247,61.5112319 L38.0718247,61.5112319 Z"/>
    </g>
  </g>
</svg>

<svg width="192" height="192" version="1.1" viewBox="0 0 192 192" xmlns="http://www.w3.org/2000/svg">
 <g fill-rule="evenodd">
  <circle cx="96" cy="96" r="87" fill="#98DC9A"/>
  <g transform="rotate(-45 136.22 -14.755)" fill-opacity=".25" fill-rule="nonzero">
   <path d="m56.965 61.236h-0.0064526c0-13.328-4.8872-26.334-13.667-35.936-9.4982-10.387-22.928-16.259-39.112-16.259v-0.012636c-2.3376-0.17411-4.18-2.1258-4.18-4.5079 0-2.3821 1.8424-4.3338 4.18-4.5079v-0.012636c0.09111 2.1489e-12 0.18215 1.6432e-4 0.27313 4.9279e-4 0.02244-3.2815e-4 0.044919-4.9279e-4 0.067437-4.9279e-4 0.037325 0 0.074544 4.5236e-4 0.11165 0.0013519 18.516 0.11081 34.205 7.0292 45.332 19.198 10.328 11.295 16.036 26.485 16.036 42.037h-0.0064526c0.0042836 0.080664 0.0064526 0.16189 0.0064526 0.24362 0 2.4966-2.0239 4.5205-4.5205 4.5205-2.4966 0-4.5205-2.0239-4.5205-4.5205 0-0.081732 0.002169-0.16296 0.0064526-0.24362z"/>
   <path d="m38.072 61.511h-0.16734v-1.3562c0-8.4665-3.1138-16.68-8.6314-22.714-6.0879-6.6578-14.616-10.25-24.716-10.25h-1.3562v-0.29746c-1.6091-0.63123-2.7485-2.1981-2.7485-4.0311 0-1.833 1.1393-3.3999 2.7485-4.0311v-0.29746h1.3562c0.057707 0 0.11538 9.78e-5 0.17302 2.933e-4 0.016949-1.954e-4 0.033922-2.933e-4 0.050917-2.933e-4 0.031207 0 0.062337 3.302e-4 0.093387 9.874e-4 12.381 0.077125 23.113 4.6701 30.788 13.064 6.9865 7.6404 10.9 17.939 10.9 28.556v1.3562h-0.16734c-0.51894 1.8089-2.1855 3.1326-4.1612 3.1326-1.9757 0-3.6423-1.3237-4.1612-3.1326z"/>
  </g>
 </g>
</svg>
